!!!COM: Frescobaldi, Girolamo
!!!CDT: 1583///-1643
!!!ONM: No. 32
!!!OTL: No. 32: Canzon Seconda &agrave; 4. Due Canti e Due Bassi
!!!OPR: Canzoni da sonare a una, due, tre et quattro, libro primo
!!!PPP: Venezia
!!!PDT: 1634
!!!URL: http://icking-music-archive.org/ByComposer/Frescobaldi.html
!!!ONB: Andrea Friggi, ed.
**kern	**kern	**kern	**kern	**kern
!Basso ad Organo	!Basso Secondo	!Basso Primo	!Canto Secondo	!Canto Primo
*staff5	*staff4	*staff3	*staff2	*staff1
*Icello	*Icello	*Icello	*Ivioln	*Ivioln
*clefC4	*clefF4	*clefF4	*clefG2	*clefG2
*k[]	*k[]	*k[]	*k[]	*k[]
*met(C)	*met(C)	*met(C)	*met(C)	*met(C)
*M4/4	*M4/4	*M4/4	*M4/4	*M4/4
*MM120	*MM120	*MM120	*MM120	*MM120
=1-	=1-	=1-	=1-	=1-
2c\	1r	1r	1r	2cc\
4A\	.	.	.	4cc\
4c\	.	.	.	4cc\
=2	=2	=2	=2	=2
2B\	1r	1r	1r	2dd\
2c\	.	.	.	2ee\
=3	=3	=3	=3	=3
*clefF4	*	*	*	*
2C/	1r	2C/	1r	4r
.	.	.	.	8cc\L
.	.	.	.	8dd\J
4C/	.	4C/	.	8ee\L
.	.	.	.	8cc\J
4C/	.	4C/	.	4gg\
=4	=4	=4	=4	=4
2D\	1r	2D\	1r	8ff\L
.	.	.	.	16aa\L
.	.	.	.	16gg\JJ
.	.	.	.	16ff\LL
.	.	.	.	16ee\
.	.	.	.	16dd\
.	.	.	.	16cc\JJ
2E\	.	2E\	.	8b\L
.	.	.	.	8g\
.	.	.	.	8gg\
.	.	.	.	8ff\J
=5	=5	=5	=5	=5
2C/	1r	4r	2g/	2ee\
.	.	8C/L	.	.
.	.	8D/J	.	.
4E\	.	8E\L	4g/	2r
.	.	8C\J	.	.
4G\	.	4G\	4g/	.
=6	=6	=6	=6	=6
2F\	1r	4F\	2a/	1r
.	.	8G\L	.	.
.	.	8F\J	.	.
4E\	.	8E\L	2b\	.
.	.	16D\L	.	.
.	.	16C\JJ	.	.
4BB/	.	8BB/L	.	.
.	.	8C/J	.	.
=7	=7	=7	=7	=7
4.AA/	1r	4.AA/	4r	2cc\
.	.	.	8cc\L	.
8BB/	.	8BB/	8dd\J	.
4C/	.	4C/	8ee\L	4cc\
.	.	.	8cc\J	.
4E\	.	4E\	4gg\	4cc\
=8	=8	=8	=8	=8
2D\	1r	2D\	16ff\LL	2dd\
.	.	.	16aa\	.
.	.	.	16gg\	.
.	.	.	16ff\JJ	.
.	.	.	16ee\LL	.
.	.	.	16dd\	.
.	.	.	16cc\	.
.	.	.	16b\JJ	.
2C/	.	2C/	2cc\	2ee\
=9	=9	=9	=9	=9
2GG/	2GG/	1G	4b\	4r
.	.	.	4ee\	8g/L
.	.	.	.	8a/J
4GG/	4GG/	.	2dd\	8b/L
.	.	.	.	8g/J
4GG/	4GG/	.	.	4dd\
=10	=10	=10	=10	=10
2AA/	2AA/	1r	1r	16cc\LL
.	.	.	.	16ee\
.	.	.	.	16dd\
.	.	.	.	16cc\JJ
.	.	.	.	16b/LL
.	.	.	.	16a/
.	.	.	.	16g/
.	.	.	.	16f#/JJ
2BB/	2BB/	.	.	4g/
.	.	.	.	4dd\
=11	=11	=11	=11	=11
2C/	4r	1r	1r	8ee\L
.	.	.	.	8cc\
.	8C/L	.	.	8ee\
.	8D/J	.	.	8ff\J
4E\	8E\L	.	.	8gg\L
.	8C\J	.	.	16ff\L
.	.	.	.	16ee\JJ
4G\	4G\	.	.	8dd\L
.	.	.	.	8ee\J
=12	=12	=12	=12	=12
2.F\	2F\	4r	2cc\	2.ff\
.	.	8F\L	.	.
.	.	8G\J	.	.
.	2r	8A\L	4cc\	.
.	.	8F\J	.	.
4c\	.	4c\	4cc\	4ee\
=13	=13	=13	=13	=13
4B-\	1r	16B-\LL	2dd\	4r
.	.	16c\	.	.
.	.	16B-\	.	.
.	.	16A\JJ	.	.
4G\	.	16G\LL	.	4g/
.	.	16F\	.	.
.	.	16E\	.	.
.	.	16D\JJ	.	.
4.C/	.	8.C/L	2ee\	4g/
.	.	16D/Jk	.	.
.	.	8C/L	.	4g/
8BB/	.	8BB/J	.	.
=14	=14	=14	=14	=14
4AA/	2r	4AA/	2r	2a/
4D\	.	4D\	.	.
2GG/	2GG/	2GG/	4r	2b\
.	.	.	8g/L	.
.	.	.	8a/J	.
=15	=15	=15	=15	=15
4GG/	4GG/	1r	8b/L	1r
.	.	.	8g/J	.
4GG/	4GG/	.	4dd\	.
2AA/	2AA/	.	16cc\LL	.
.	.	.	16ee\	.
.	.	.	16dd\	.
.	.	.	16cc\JJ	.
.	.	.	16b/LL	.
.	.	.	16a/	.
.	.	.	16g/	.
.	.	.	16f#/JJ	.
=16	=16	=16	=16	=16
4BB/	4BB/	1r	4g/	2dd\
8GG/L	8GG/L	.	8b\L	.
8AA/J	8AA/J	.	8cc\J	.
4BB/	8BB/L	.	8dd\L	4dd\
.	8GG/J	.	8b\J	.
4GG/	4G\	.	[4dd\	4dd\
=17	=17	=17	=17	=17
4EE/	4E\	2r	4dd\]	2ee\
4AA/	4AA/	.	4cc#\	.
[2D\	[2D\	4r	[2dd\	2ff#\
.	.	8D\L	.	.
.	.	8E\J	.	.
=18	=18	=18	=18	=18
4D\]	4D\]	8F#\L	4dd\]	2r
.	.	8D\J	.	.
4BB/	4BB/	4G\	4dd\	.
2C/	4.C/	8E\L	4ee\	8.cc\L
.	.	8C\J	.	.
.	.	.	.	16dd\Jk
.	.	4c\	[4cc\	8ee\L
.	8C/	.	.	8cc\J
=19	=19	=19	=19	=19
1GG	1G	2G\	4cc\]	8dd\L
.	.	.	.	8g\J
.	.	.	8b/L	4.gg\
.	.	.	8a/J	.
.	.	2GG/	2b\	.
.	.	.	.	16ff\LL
.	.	.	.	16ee\JJ
.	.	.	.	4dd\
=20	=20	=20	=20	=20
1C	1C	1C	1cc	1ee
=21:|!	=21:|!	=21:|!	=21:|!	=21:|!
*clefC4	*	*	*	*
1c	1r	1r	2r	1r
.	.	.	2ee\	.
=22	=22	=22	=22	=22
1G#	1r	1r	[2ee\	2r
.	.	.	8ee\L]	2ee\
.	.	.	8dd\	.
.	.	.	8cc\	.
.	.	.	8b\J	.
=23	=23	=23	=23	=23
2A\	1r	1r	16cc\LL	[2ee\
.	.	.	16a\	.
.	.	.	16b\	.
.	.	.	16cc\JJ	.
.	.	.	16dd\LL	.
.	.	.	16ee\	.
.	.	.	16ff\	.
.	.	.	16gg\JJ	.
*clefF4	*	*	*	*
[2AA/	.	.	[2aa\	8ee\L]
.	.	.	.	8dd\
.	.	.	.	8cc\
.	.	.	.	8b\J
=24	=24	=24	=24	=24
4AA/]	1r	1r	4aa\]	16cc\LL
.	.	.	.	16a\
.	.	.	.	16b\
.	.	.	.	16cc\JJ
4BB/	.	.	2gg\	16dd\LL
.	.	.	.	16ee\
.	.	.	.	16ff\
.	.	.	.	16gg\JJ
4C/	.	.	.	[2aa\
4D\	.	.	4ff\	.
=25	=25	=25	=25	=25
2E\	1r	1r	2ee\	4aa\]
.	.	.	.	4gg\
2F\	.	.	2dd\	[2ff\
=26	=26	=26	=26	=26
1G	1r	1r	4b-\	2ff\]
.	.	.	4g/	.
.	.	.	[2gg\	4ee\
.	.	.	.	4dd\
=27	=27	=27	=27	=27
1A	1r	1r	4gg\]	4cc#\
.	.	.	4ff\	2dd\
.	.	.	2ee\	.
.	.	.	.	4cc#\
=28	=28	=28	=28	=28
*	*clefC4	*	*	*
2D\	4D/	2r	2ff\	2dd\
.	8d\L	.	.	.
.	8d\J	.	.	.
4.AA/	8c\L	4.AA/	2r	2r
.	16A\L	.	.	.
.	16B\JJ	.	.	.
.	8c\L	.	.	.
8AA/	8A\J	8AA/	.	.
=29	=29	=29	=29	=29
4.BB/	8G/L	4.BB/	1r	1r
.	8F/	.	.	.
.	8E/	.	.	.
8BB/	8D/J	8BB/	.	.
2C/	2C/	4.C/	.	.
.	.	8C/	.	.
=30	=30	=30	=30	=30
2D\	1r	4.D\	1r	2r
.	.	8D\	.	.
4E\	.	8E\L	.	4.cc\
.	.	8C\	.	.
4C/	.	8c\	.	.
.	.	8c\J	.	8cc\
=31	=31	=31	=31	=31
2G\	1r	8B\L	2r	4.dd\
.	.	16G\L	.	.
.	.	16A\JJ	.	.
.	.	8B\L	.	.
.	.	8G\J	.	8dd\
2C/	.	2c\	8r	4.ee\
.	.	.	8cc\L	.
.	.	.	8gg\	.
.	.	.	8gg\J	8ee\
=32	=32	=32	=32	=32
2D\	4D/	1r	8ff\L	2ff\
.	.	.	16dd\L	.
.	.	.	16ee\JJ	.
.	8d\L	.	8ff\L	.
.	8d\J	.	8ff\J	.
4A\	8c\L	.	4.ee\	2r
.	16A\L	.	.	.
.	16B\JJ	.	.	.
4c\	8c\L	.	.	.
.	8c\J	.	8cc\	.
=33	=33	=33	=33	=33
2G\	8B\L	8r	4.dd\	4.g/
.	16G\L	8GG/L	.	.
.	16A\JJ	.	.	.
.	8B\L	8G/	.	.
.	8G\J	8G/J	8ee\	8g/
2D\	2D/	8F\L	4.ff\	4.a/
.	.	16D\L	.	.
.	.	16E\JJ	.	.
.	.	8F\L	.	.
.	.	8F\J	8aa\	8a/
=34	=34	=34	=34	=34
*	*clefF4	*	*	*
2E\	2r	8E\L	2gg\	4.b\
.	.	16G\L	.	.
.	.	16F\JJ	.	.
.	.	8E\L	.	.
.	.	8D\J	.	8b\
2C/	4.C/	2C/	2r	8cc\L
.	.	.	.	8g\
.	.	.	.	8gg\
.	8C/	.	.	8gg\J
=35	=35	=35	=35	=35
2D\	4.D\	1r	8r	8ff\L
.	.	.	8aa\L	16dd\L
.	.	.	.	16ee\JJ
.	.	.	8aa\	8ff\L
.	8D\	.	8aa\J	8ff\J
2E\	4.E\	.	4.gg\	8ee\L
.	.	.	.	8dd\
.	.	.	.	8cc\
.	8E\	.	8gg\	8b\J
=36	=36	=36	=36	=36
4F\	4.F\	2r	4ff\	8a/L
.	.	.	.	8b/J
4F\	.	.	4ee\	2cc\
.	8F\	.	.	.
4.G\	2G\	4.G\	2dd\	.
.	.	.	.	4b\
8G\	.	8G\	.	.
=37	=37	=37	=37	=37
4A\	1r	4.A\	2cc\	8cc\L
.	.	.	.	8ee\
4A\	.	.	.	8aa\
.	.	8A\	.	8aa\J
2B\	.	4.B\	8r	4.gg\
.	.	.	8g\L	.
.	.	.	8dd\	.
.	.	8B\	8dd\J	8ff\
=38	=38	=38	=38	=38
2c\	8r	2c\	8cc\L	2ee\
.	8C\L	.	16cc\L	.
.	.	.	16dd\JJ	.
.	8c\	.	8ee\L	.
.	8c\J	.	16ff\L	.
.	.	.	16ee\JJ	.
2G\	8B\L	2G\	4.dd\	2r
.	16G\L	.	.	.
.	16A\JJ	.	.	.
.	8B\L	.	.	.
.	8G\J	.	8dd\	.
=39	=39	=39	=39	=39
2A\	2A\	8r	2cc\	4.cc\
.	.	8A\L	.	.
.	.	8A\	.	.
.	.	8A\J	.	8cc\
4.G\	2r	4.G\	2r	4.dd\
8F\	.	8F\	.	8dd\
=40	=40	=40	=40	=40
2E\	8r	2E\	4.g/	4.ee\
.	8E\L	.	.	.
.	8E\	.	.	.
.	8E\J	.	8g/	8ee\
4.D\	4.D\	8r	4.a/	4ff#\
.	.	8D\L	.	.
.	.	8A\	.	4ff#\
8C/	8C/	8A\J	8a/	.
=41	=41	=41	=41	=41
4BB/	4BB/	4.G\	4.b\	2gg\
4GG/	4GG/	.	.	.
.	.	8GG/	8b\	.
2AA/	8r	4.AA/	4.cc\	2r
.	8A\L	.	.	.
.	8A\	.	.	.
.	8A\J	8AA/	8cc\	.
=42	=42	=42	=42	=42
2BB/	4.G\	4.BB/	2dd\	8r
.	.	.	.	8g\L
.	.	.	.	8dd\
.	8F\	8BB/	.	8dd\J
2C/	4E\	4.C/	2r	8cc\L
.	.	.	.	16ee\L
.	.	.	.	16ff\JJ
.	4C/	.	.	8gg\L
.	.	8C/	.	8aa\J
=43	=43	=43	=43	=43
4.D\	8r	2D\	2r	2ff#\
.	8D\L	.	.	.
.	8A\	.	.	.
8D\	8A\J	.	.	.
8G\L	8G\L	4r	8r	2r
8E\J	16E\L	.	8gg\L	.
.	16F\JJ	.	.	.
4C/	8G\L	4C/	8gg\	.
.	8E\J	.	8gg\J	.
=44	=44	=44	=44	=44
2D\	8F\L	4.D\	4.ff\	8r
.	8D\	.	.	8a\L
.	8A\	.	.	8dd\
.	8B\J	8D\	8ff\	8dd\J
4E\	4c\	4.E\	8ee\L	8cc/L
.	.	.	8ee\	8g/
4C/	4C/	.	8ee\	8cc/
.	.	8F\	8ee\J	8cc/J
=45	=45	=45	=45	=45
1GG	2GG/	2G\	4dd\	8b\L
.	.	.	.	16gg\L
.	.	.	.	16ff\JJ
.	.	.	2cc\	8ee\L
.	.	.	.	8ff\J
.	2G\	2GG/	.	2dd\
.	.	.	4b\	.
=46	=46	=46	=46	=46
1C	1C	1C	1cc	1ee
=47	=47	=47	=47	=47
1G	1r	2r	1r	1r
.	.	2G\	.	.
=48	=48	=48	=48	=48
2.F#\	1r	2.F#\	1r	1r
4F#\	.	4F#\	.	.
=49	=49	=49	=49	=49
2G#\	1r	2G#\	1r	1r
2A\	.	2A\	.	.
=50	=50	=50	=50	=50
2.E\	1r	2.E\	1r	1r
4D\	.	4D\	.	.
=51	=51	=51	=51	=51
2C#/	1r	2C#/	1r	1r
2D\	.	2D\	.	.
=52	=52	=52	=52	=52
1BB	1r	1BB	1r	1r
=53	=53	=53	=53	=53
2AA/	2r	1AA	1r	1r
2A\	2A\	.	.	.
=54	=54	=54	=54	=54
1F#	2.F#\	1r	1r	1r
.	4F#\	.	.	.
=55	=55	=55	=55	=55
2G#\	2G#\	1r	1r	1r
2A\	2A\	.	.	.
=56	=56	=56	=56	=56
1C#	2.C#/	1r	1r	1r
.	4C#/	.	.	.
=57	=57	=57	=57	=57
2D\	2D\	1r	1r	1r
2E\	2E\	.	.	.
=58	=58	=58	=58	=58
1F	1F	1r	1r	1r
=59	=59	=59	=59	=59
1E	1E	1E	1r	1r
=60	=60	=60	=60	=60
2.C#/	2r	2.C#/	1r	1r
.	2A\	.	.	.
4C#/	.	4C#/	.	.
=61	=61	=61	=61	=61
1D	2.F#\	1D	1r	1r
.	4F#\	.	.	.
=62	=62	=62	=62	=62
1BB	2G\	2BB/	1r	1r
.	2BB/	2G\	.	.
=63	=63	=63	=63	=63
2.C/	2.C/	4r	1r	1r
.	.	4C/	.	.
.	.	4E\	.	.
4BB/	4BB/	8F#\L	.	.
.	.	8G\J	.	.
=64	=64	=64	=64	=64
1AA	2.AA/	4A\	1r	1r
.	.	4AA/	.	.
.	.	4C/	.	.
.	8GG/L	4D\	.	.
.	8FF/J	.	.	.
=65	=65	=65	=65	=65
1EE	2EE/	1E	1r	1r
.	2E\	.	.	.
=66	=66	=66	=66	=66
2.BB/	2.BB/	1G	1r	1r
4C/	4C/	.	.	.
=67	=67	=67	=67	=67
1D	1D	1D	1r	1r
=68	=68	=68	=68	=68
1GG	1GG	1G	1r	1r
=69	=69	=69	=69	=69
*M3/2	*M3/2	*M3/2	*M3/2	*M3/2
1.c	1.r	1.r	1.r	2.ee\
.	.	.	.	4ee\
.	.	.	.	4dd\
.	.	.	.	4cc\
=70	=70	=70	=70	=70
2.G\	2.G\	1.r	2.dd\	2.b\
4G\	4G\	.	4dd\	4b\
4F\	4F\	.	2ee\	2cc#\
4E\	4E\	.	.	.
=71	=71	=71	=71	=71
1.D	1.D	2.D\	4.ff\	4.dd\
.	.	.	8ee\	8cc\
.	.	.	4ff\	4dd\
.	.	4D\	4ff\	4dd\
.	.	4C/	2gg\	4ee\
.	.	4BB/	.	4dd\
=72	=72	=72	=72	=72
2AA/	1.r	1AA	2.aa\	4.cc#\
.	.	.	.	8dd\
2AA/	.	.	.	4ee\
.	.	.	4a/	4cc#\
2GG/	.	2GG/	4b\	4dd\
.	.	.	4cc\	4ee\
=73	=73	=73	=73	=73
2.D\	2.D\	1D	4.dd\	2.ff\
.	.	.	8ee\	.
.	.	.	4ff\	.
4D\	4D\	.	4ff\	4dd\
2E\	4E\	2r	2ee\	2cc\
.	4F\	.	.	.
=74	=74	=74	=74	=74
2G\	1G	2.GG/	1dd	1b
2GG/	.	.	.	.
.	.	4GG/	.	.
2AA/	2r	4AA/	2r	2r
.	.	4BB/	.	.
=75	=75	=75	=75	=75
1C	2.C/	1C	1.r	1.r
.	4C/	.	.	.
2D\	4D\	2r	.	.
.	4E\	.	.	.
=76	=76	=76	=76	=76
1F	1F	2r	2r	1.r
.	.	2F\	2aa\	.
2E\	2r	2E\	2gg\	.
=77	=77	=77	=77	=77
1.D	1.r	1D	2.ff#\	2r
.	.	.	.	2dd\
.	.	.	4dd\	.
.	.	2r	4ee\	2cc\
.	.	.	4ff#\	.
=78	=78	=78	=78	=78
1G	1.r	2r	2.gg\	2.b\
.	.	2G\	.	.
.	.	.	4b\	4g/
2F\	.	2F\	4cc\	4a/
.	.	.	4dd\	4b\
=79	=79	=79	=79	=79
2.E\	1.r	2.E\	4ee\	2.cc\
.	.	.	4cc\	.
.	.	.	4ee\	.
4C/	.	4C/	4ee\	4cc\
4D\	.	4D\	2dd\	2b\
4E\	.	4E\	.	.
=80	=80	=80	=80	=80
2F\	1.r	4F\	2.cc\	2a/
.	.	4AA/	.	.
2C/	.	4C/	.	2aa\
.	.	4D\	4cc\	.
2E\	.	2E\	2b\	2gg#\
=81	=81	=81	=81	=81
2AA/	2r	1AA	1a	1aa
2A\	2A\	.	.	.
2G\	2G\	2r	2r	2r
=82	=82	=82	=82	=82
*	*	*clefC4	*	*
2.F#\	2.F#\	2r	1.r	1.r
.	.	2d\	.	.
4D\	4D\	.	.	.
4E\	4E\	2c\	.	.
4F#\	4F#\	.	.	.
=83	=83	=83	=83	=83
1G	1G	2.B\	1.r	1.r
.	.	4G/	.	.
2F\	2F\	4A\	.	.
.	.	4B\	.	.
=84	=84	=84	=84	=84
1C	2.C/	1c	2r	2r
.	.	.	2ee\	2gg\
.	4E\	.	.	.
2F\	4F\	2r	2dd\	2ff\
.	4G\	.	.	.
=85	=85	=85	=85	=85
1A	2.A\	1.r	2.cc\	2.ee\
.	4A\	.	4cc\	4cc\
2G\	2G\	.	4b\	4dd\
.	.	.	4cc\	4ee\
=86	=86	=86	=86	=86
*	*	*clefF4	*	*
1F	1F	2r	2.a/	2.ff\
.	.	2F\	.	.
.	.	.	4a/	4dd\
2E\	2r	2E\	4b\	2gg\
.	.	.	4cc#\	.
=87	=87	=87	=87	=87
1D	2r	2.D\	2dd\	2ff\
.	2r	.	2ff\	4a/
.	.	4D\	.	4b\
2C/	2C/	4E\	2ee\	2cc\
.	.	4F\	.	.
=88	=88	=88	=88	=88
1GG	1GG	1G	4dd\	4b\
.	.	.	4dd\	4g/
.	.	.	4ee\	2.cc\
.	.	.	4ff\	.
2GG/	2GG/	2G\	2gg\	.
.	.	.	.	4b\
=89	=89	=89	=89	=89
*met(C)	*met(C)	*met(C)	*met(C)	*met(C)
*M4/4	*M4/4	*M4/4	*M4/4	*M4/4
1C	1C	1C	1ee	1cc
=90	=90	=90	=90	=90
4c\	4c\	1r	1r	1r
4B\	4B\	.	.	.
4A\	4A\	.	.	.
4G\	4G\	.	.	.
=91	=91	=91	=91	=91
2F#\	2F#\	1r	1r	1r
2G\	2G\	.	.	.
=92	=92	=92	=92	=92
2.E\	2.E\	1r	1r	1r
8D/L	8D/L	.	.	.
8C/J	8C/J	.	.	.
=93	=93	=93	=93	=93
2BB/	2BB/	1r	1r	8r
.	.	.	.	8gg\L
.	.	.	.	8gg\
.	.	.	.	8ff\J
2C/	2C/	.	.	8ee\L
.	.	.	.	16dd\L
.	.	.	.	16ee\JJ
.	.	.	.	8cc\L
.	.	.	.	8ee\J
=94	=94	=94	=94	=94
2GG/	2GG/	1r	2r	8dd/L
.	.	.	.	16g/L
.	.	.	.	16a/JJ
.	.	.	.	16b\LL
.	.	.	.	16cc\
.	.	.	.	16dd\
.	.	.	.	16ee\JJ
2D\	2D\	.	8r	8ff#\L
.	.	.	8dd\L	8gg\J
.	.	.	8dd\	4aa\
.	.	.	8cc\J	.
=95	=95	=95	=95	=95
2GG/	2GG/	2G\	8b/L	2gg\
.	.	.	16a/L	.
.	.	.	16b/JJ	.
.	.	.	8g/L	.
.	.	.	8b/J	.
2D\	2r	4.D\	8a/L	2r
.	.	.	16d/L	.
.	.	.	16e/JJ	.
.	.	.	16f/LL	.
.	.	.	16g/	.
.	.	8D\	16a/	.
.	.	.	16b/JJ	.
=96	=96	=96	=96	=96
2AA/	2r	4A\	8cc#\L	2r
.	.	.	8dd\J	.
.	.	4A\	4ee\	.
2D\	2D\	2F#\	2dd\	8r
.	.	.	.	8dd\L
.	.	.	.	8dd\
.	.	.	.	8cc\J
=97	=97	=97	=97	=97
2G\	4.GG/	2G\	1r	8b/L
.	.	.	.	16a/L
.	.	.	.	16b/JJ
.	.	.	.	8g/L
.	8GG/	.	.	8b/J
2D\	2D\	4r	.	8a/L
.	.	.	.	16d/L
.	.	.	.	16e/JJ
.	.	4D\	.	16f/LL
.	.	.	.	16g/
.	.	.	.	16a/
.	.	.	.	16b/JJ
=98	=98	=98	=98	=98
4.AA/	4r	4.AA/	2r	8cc\L
.	.	.	.	16dd\L
.	.	.	.	16cc\JJ
.	4A\	.	.	8b/L
8AA/	.	8AA/	.	8a/J
2E\	4.E\	2E\	8r	2b\
.	.	.	8ee\L	.
.	.	.	8ee\	.
.	8E\	.	8dd\J	.
=99	=99	=99	=99	=99
4A\	4A\	2AA/	8cc\L	2a/
.	.	.	16b\L	.
.	.	.	16cc\JJ	.
4F#\	4F#\	.	8a\L	.
.	.	.	8cc\J	.
4G\	4G\	2r	8b/L	2r
.	.	.	16e/L	.
.	.	.	16f/JJ	.
4E\	4E\	.	16g/LL	.
.	.	.	16a/	.
.	.	.	16b/	.
.	.	.	16cc/JJ	.
=100	=100	=100	=100	=100
2BB/	4.BB/	2r	2dd\	8r
.	.	.	.	8gg\L
.	.	.	.	8gg\
.	8BB/	.	.	8ff\J
2C/	2C/	2C/	2r	8ee\L
.	.	.	.	16dd\L
.	.	.	.	16ee\JJ
.	.	.	.	8cc\L
.	.	.	.	8ee\J
=101	=101	=101	=101	=101
4GG/	2G\	4.GG/	8r	2dd\
.	.	.	8dd\L	.
4GG/	.	.	8b\	.
.	.	8GG/	8gg\J	.
4.D\	2r	4.D\	8ff\L	2r
.	.	.	16dd\L	.
.	.	.	16ee\JJ	.
.	.	.	8ff\L	.
8F\	.	8F\	8aa\J	.
=102	=102	=102	=102	=102
4.E\	2r	4.E\	2gg\	8r
.	.	.	.	8b/L
.	.	.	.	8g/
8G\	.	8G\	.	8b/J
2F\	2F\	2F\	8r	8a\L
.	.	.	16a/LL	8aa\
.	.	.	16b/JJ	.
.	.	.	8cc\L	8ff\
.	.	.	8a\J	8aa\J
=103	=103	=103	=103	=103
2C/	4.C/	2c\	8ee/L	2gg\
.	.	.	16e/L	.
.	.	.	16f/JJ	.
.	.	.	8g/L	.
.	8C/	.	8e/J	.
4.F\	4.F\	2r	2a/	8r
.	.	.	.	8cc\L
.	.	.	.	8a\
8A\	8A\	.	.	8cc\J
=104	=104	=104	=104	=104
4.G\	4.G\	1r	8r	2b\
.	.	.	16b\LL	.
.	.	.	16cc\JJ	.
.	.	.	8dd\L	.
8B-\	8B-\	.	8g\J	.
2A\	4A\	.	2cc\	8r
.	.	.	.	8ee\L
.	4A\	.	.	8cc\
.	.	.	.	8ee\J
=105	=105	=105	=105	=105
4F#\	4.F#\	2r	8r	2a/
.	.	.	16ff#\LL	.
.	.	.	16gg\JJ	.
4D\	.	.	8aa\L	.
.	8F#\	.	8dd\J	.
2BB/	2G\	4r	2gg\	8r
.	.	.	.	8dd\L
.	.	4D\	.	8b\
.	.	.	.	8dd\J
=106	=106	=106	=106	=106
2C/	1r	4.C/	8r	2g/
.	.	.	16ee\LL	.
.	.	.	16ff\JJ	.
.	.	.	8gg\L	.
.	.	8C/	8cc\J	.
4.D\	.	4.D\	2ff\	8r
.	.	.	.	8dd\L
.	.	.	.	8a\
8F\	.	8F\	.	8aa\J
=107	=107	=107	=107	=107
4.E\	2r	4.E\	8r	2gg\
.	.	.	16cc\LL	.
.	.	.	16dd\JJ	.
.	.	.	8ee\L	.
8G\	.	8G\	8b\J	.
2D\	2D\	2D\	8dd\L	8r
.	.	.	8aa\	8ff\L
.	.	.	8ff\	8dd\
.	.	.	8dd\J	8ff\J
=108	=108	=108	=108	=108
4.AA/	4.AA/	1r	8ee\L	2cc\
.	.	.	16a\L	.
.	.	.	16b\JJ	.
.	.	.	8cc/L	.
8C/	8C/	.	8g/J	.
4.BB/	4.BB/	.	2dd\	8r
.	.	.	.	16b\LL
.	.	.	.	16cc\JJ
.	.	.	.	8dd\L
8D\	8D\	.	.	8a\J
=109	=109	=109	=109	=109
2C/	4.C/	2C/	8r	2ee\
.	.	.	8cc/L	.
.	.	.	8g/	.
.	8E\	.	8cc/J	.
4.GG/	2G\	4.GG/	2b\	8r
.	.	.	.	16g/LL
.	.	.	.	16a/JJ
.	.	.	.	8b/L
8BB/	.	8BB/	.	8g/J
=110	=110	=110	=110	=110
4AA/	2r	4AA/	2r	8cc\L
.	.	.	.	16cc\L
.	.	.	.	16dd\JJ
4C/	.	4C/	.	8ee\L
.	.	.	.	8cc\J
2EE/	2E\	4.EE/	8r	4gg\
.	.	.	8gg\L	.
.	.	.	8ee\	4cc\
.	.	8FF/	8aa\J	.
=111	=111	=111	=111	=111
1GG	8BB/L	1GG	4.gg\	8r
.	8GG/J	.	.	16b\LL
.	.	.	.	16cc\JJ
.	2G\	.	.	8dd\L
.	.	.	16ff\LL	8g\J
.	.	.	16ee\JJ	.
.	.	.	2dd\	2gg\
.	4G\	.	.	.
=112	=112	=112	=112	=112
0C	0C	0C	0cc	0ee
==	==	==	==	==
*-	*-	*-	*-	*-
!!!ENC: Craig Stuart Sapp
!!!END: 2004/12/14/
